flaticon/business/cart-5.svg

<svg xmlns="http://www.w3.org/2000/svg" width="32" height="32" viewBox="0 0 24 24">
    <path d="M 4.671875 5.199219 L 4.339844 3.199219 L 3.144531 3.199219 C 2.964844 2.511719 2.34375 2 1.601562 2 C 0.71875 2 0 2.71875 0 3.601562 C 0 4.480469 0.71875 5.199219 1.601562 5.199219 C 2.34375 5.199219 2.964844 4.6875 3.144531 4 L 3.660156 4 L 3.859375 5.199219 L 3.84375 5.199219 L 5.914062 15.605469 C 4.929688 15.679688 4.105469 16.441406 4.011719 17.394531 C 3.953125 17.957031 4.136719 18.519531 4.515625 18.9375 C 4.898438 19.359375 5.4375 19.601562 6 19.601562 L 6.800781 19.601562 C 6.800781 20.921875 7.875 22 9.199219 22 C 10.523438 22 11.601562 20.921875 11.601562 19.601562 L 16 19.601562 C 16 20.921875 17.078125 22 18.398438 22 C 19.722656 22 20.800781 20.921875 20.800781 19.601562 L 22.398438 19.601562 C 22.621094 19.601562 22.800781 19.421875 22.800781 19.199219 C 22.800781 18.980469 22.621094 18.800781 22.398438 18.800781 L 20.660156 18.800781 C 20.328125 17.871094 19.441406 17.199219 18.398438 17.199219 C 17.355469 17.199219 16.46875 17.871094 16.140625 18.800781 L 11.460938 18.800781 C 11.128906 17.871094 10.242188 17.199219 9.199219 17.199219 C 8.15625 17.199219 7.269531 17.871094 6.941406 18.800781 L 6 18.800781 C 5.664062 18.800781 5.339844 18.65625 5.109375 18.402344 C 4.878906 18.148438 4.769531 17.820312 4.804688 17.476562 C 4.867188 16.871094 5.425781 16.402344 6.074219 16.402344 L 6.390625 16.402344 C 6.398438 16.402344 6.402344 16.402344 6.40625 16.402344 L 22.003906 16.402344 C 23.105469 16.398438 24 15.503906 24 14.40625 L 24 5.199219 Z M 1.601562 4.398438 C 1.160156 4.398438 0.800781 4.042969 0.800781 3.601562 C 0.800781 3.160156 1.160156 2.800781 1.601562 2.800781 C 2.042969 2.800781 2.398438 3.160156 2.398438 3.601562 C 2.398438 4.042969 2.042969 4.398438 1.601562 4.398438 Z M 18.398438 18 C 19.28125 18 20 18.71875 20 19.601562 C 20 20.480469 19.28125 21.199219 18.398438 21.199219 C 17.519531 21.199219 16.800781 20.480469 16.800781 19.601562 C 16.800781 18.71875 17.519531 18 18.398438 18 Z M 9.199219 18 C 10.082031 18 10.800781 18.71875 10.800781 19.601562 C 10.800781 20.480469 10.082031 21.199219 9.199219 21.199219 C 8.316406 21.199219 7.601562 20.480469 7.601562 19.601562 C 7.601562 18.71875 8.316406 18 9.199219 18 Z M 23.199219 14.40625 C 23.199219 15.0625 22.664062 15.601562 22.003906 15.601562 L 6.726562 15.601562 L 4.820312 6 L 23.199219 6 Z M 23.199219 14.40625"/>
</svg>

<svg xmlns="http://www.w3.org/2000/svg" width="32" height="32" viewBox="0 0 24 24">
    <path d="M4.672 5.2l-.332-2H3.145A1.6 1.6 0 0 0 1.602 2C.719 2 0 2.719 0 3.602c0 .878.719 1.597 1.602 1.597A1.6 1.6 0 0 0 3.145 4h.515l.2 1.2h-.016l2.07 10.405c-.984.075-1.809.836-1.902 1.79a1.992 1.992 0 0 0 .504 1.543c.382.421.921.664 1.484.664h.8A2.401 2.401 0 0 0 9.2 22a2.405 2.405 0 0 0 2.402-2.398H16A2.404 2.404 0 0 0 18.398 22a2.405 2.405 0 0 0 2.403-2.398h1.597a.401.401 0 0 0 0-.8L20.66 18.8a2.408 2.408 0 0 0-2.262-1.602 2.4 2.4 0 0 0-2.257 1.602h-4.68a2.408 2.408 0 0 0-2.262-1.602 2.4 2.4 0 0 0-2.258 1.602H6a1.206 1.206 0 0 1-1.195-1.324c.062-.606.62-1.075 1.27-1.075h15.929A2.002 2.002 0 0 0 24 14.406V5.2zm-3.07-.802a.799.799 0 1 1-.005-1.597.799.799 0 0 1 .005 1.597zM18.398 18c.883 0 1.602.719 1.602 1.602 0 .878-.719 1.597-1.602 1.597a1.602 1.602 0 0 1-1.597-1.597c0-.883.719-1.602 1.597-1.602zM9.2 18c.883 0 1.602.719 1.602 1.602A1.6 1.6 0 1 1 9.199 18zm14-3.594c0 .656-.535 1.196-1.195 1.196H6.727L4.82 6H23.2zm0 0"/>
</svg>
